X: 41867
T: Visser Schots
R: jig
M: 6/8
K: Gmajor
g|:dBd cAc|Bcd efg|ded dcB|ABA A2 g|
dBd cAc|Bcd efg|ded cBA|GAG G3:|
|:BGB BGB|cAc cAc|Bcg dcB|ABA A2 A|
BGB BGB|cAc cAc|ded cBA|GAG G3:|

